src/app/assets/svg/shop.svg

<?xml version="1.0" encoding="UTF-8"?>
<svg width="49px" height="42px" viewBox="0 0 49 42" version="1.1" xmlns="http://www.w3.org/2000/svg" xmlns:xlink="http://www.w3.org/1999/xlink">
    <title>store-icon</title>
    <defs>
        <polygon id="path-1" points="0 -4.54747351e-13 49 -4.54747351e-13 49 42 0 42"></polygon>
    </defs>
    <g id="Page-1" stroke="none" stroke-width="1" fill="none" fill-rule="evenodd">
        <g id="Blue-Sky-Product-Page" transform="translate(-450.000000, -3147.000000)">
            <g id="store-icon" transform="translate(450.000000, 3147.000000)">
                <mask id="mask-2" fill="white">
                    <use xlink:href="#path-1"></use>
                </mask>
                <g id="Clip-2"></g>
                <path d="M31.6835865,19.3976108 C31.6092672,20.1343414 31.0023256,20.6805383 30.2839051,20.6805383 L21.2541015,20.6805383 C20.5356809,20.6805383 19.9423646,20.1343414 19.8420334,19.410313 C19.7689527,18.7497959 19.656235,17.5176773 19.5447559,16.1953728 C19.3837306,14.342114 19.1991709,12.23354 19.0740666,11.5476183 C18.8895068,10.5314381 18.12154,10.4171178 17.7858642,10.4171178 L15.3085518,10.4171178 C14.8378624,10.4171178 14.4675042,10.0360502 14.4675042,9.55336458 C14.4675042,9.07067897 14.8378624,8.68961137 15.3085518,8.68961137 L17.7858642,8.68961137 C18.9378144,8.68961137 20.4006674,9.35012853 20.7338659,11.2427643 C20.7598777,11.3697868 20.7834121,11.5476183 20.8094239,11.7495842 L30.9527794,11.7495842 C31.3615359,11.7495842 31.746758,11.9159837 32.0192624,12.23354 C32.2781415,12.5383941 32.4020071,12.9448662 32.3660861,13.3640405 L31.6835865,19.3976108 Z M29.181501,24.9357931 C28.4023863,24.9357931 27.7706717,24.2879782 27.7706717,23.4991683 C27.7706717,22.7001966 28.4023863,22.0523817 29.181501,22.0523817 C29.9507065,22.0523817 30.5811825,22.7001966 30.5811825,23.4991683 C30.5811825,24.2879782 29.9507065,24.9357931 29.181501,24.9357931 L29.181501,24.9357931 Z M21.3903536,23.4991683 C21.3903536,22.7001966 22.0096817,22.0523817 22.7900351,22.0523817 C23.5703885,22.0523817 24.2021032,22.7001966 24.2021032,23.4991683 C24.2021032,24.2879782 23.5703885,24.9357931 22.7900351,24.9357931 C22.0096817,24.9357931 21.3903536,24.2879782 21.3903536,23.4991683 L21.3903536,23.4991683 Z M2.81051088,-4.54747351e-13 C1.26219065,-4.54747351e-13 0,1.29690005 0,2.88468169 L0,30.8169363 C0,32.404718 1.26219065,33.6876455 2.81051088,33.6876455 L22.9436285,33.6876455 L22.9436285,37.5338878 L15.5352259,38.4560714 C14.5839379,38.5742023 13.9076316,39.4608196 14.0228267,40.4350824 C14.1293511,41.3369424 14.8787381,42 15.7420814,42 C15.8126849,42 15.8820496,41.9949191 15.9538917,41.9860275 L24.4993807,40.9228489 L33.047347,41.9860275 C33.1179504,41.9949191 33.1885538,42 33.2579186,42 C34.1225006,42 34.8706489,41.3369424 34.9771733,40.4350824 C35.0923684,39.4608196 34.4160621,38.5742023 33.4647741,38.4560714 L26.4131045,37.5783457 L26.4131045,33.6876455 L46.1882505,33.6876455 C47.7365707,33.6876455 49,32.404718 49,30.8169363 L49,2.88468169 C49,1.29690005 47.7365707,-4.54747351e-13 46.1882505,-4.54747351e-13 L2.81051088,-4.54747351e-13 Z" id="Fill-1" fill="#4273B9" mask="url(#mask-2)"></path>
            </g>
        </g>
    </g>
</svg>

<svg xmlns="http://www.w3.org/2000/svg" xmlns:xlink="http://www.w3.org/1999/xlink" width="49" height="42"><defs/><defs><path id="a" d="M0 0h49v42H0z"/></defs><g fill="none" fill-rule="evenodd"><mask id="b" fill="#fff"><use xlink:href="#a"/></mask><path fill="#4273B9" d="M31.684 19.398a1.412 1.412 0 01-1.4 1.283h-9.03c-.718 0-1.312-.547-1.412-1.27a149.46 149.46 0 01-.297-3.216c-.161-1.853-.346-3.961-.47-4.647-.185-1.017-.953-1.13-1.29-1.13H15.31a.845.845 0 01-.841-.865c0-.482.37-.863.84-.863h2.478c1.152 0 2.615.66 2.948 2.553.026.127.05.305.075.507h10.144c.409 0 .794.166 1.066.484.26.304.383.71.347 1.13l-.682 6.034zm-2.502 5.538c-.78 0-1.411-.648-1.411-1.437 0-.799.631-1.447 1.41-1.447.77 0 1.4.648 1.4 1.447 0 .789-.63 1.437-1.4 1.437zm-7.792-1.437c0-.799.62-1.447 1.4-1.447.78 0 1.412.648 1.412 1.447 0 .789-.632 1.437-1.412 1.437-.78 0-1.4-.648-1.4-1.437zM2.81 0C1.263 0 0 1.297 0 2.885v27.932c0 1.588 1.262 2.87 2.81 2.87h20.134v3.847l-7.409.922c-.951.118-1.627 1.005-1.512 1.98.106.9.856 1.564 1.72 1.564.07 0 .139-.005.21-.014l8.546-1.063 8.548 1.063c.071.009.142.014.21.014.866 0 1.614-.663 1.72-1.565.115-.974-.56-1.86-1.512-1.979l-7.052-.878v-3.89h19.775c1.549 0 2.812-1.283 2.812-2.871V2.885C49 1.297 47.737 0 46.188 0H2.811z" mask="url(#b)"/></g></svg>
